<?xml version="1.0" encoding="UTF-8"?>
<map version="1.10" tiledversion="1.11.2" orientation="orthogonal" renderorder="right-down" width="30" height="18" tilewidth="32" tileheight="30" infinite="0" nextlayerid="4" nextobjectid="81">
 <editorsettings>
  <export format="json"/>
 </editorsettings>
 <layer id="1" name="Tile Layer 1" width="30" height="18">
  <data encoding="csv">
0,0,0,0,0,0,0,0,0,0,0,0,0,0,0,0,0,0,0,0,0,0,0,0,0,0,0,0,0,0,
0,0,0,0,0,0,0,0,0,0,0,0,0,0,0,0,0,0,0,0,0,0,0,0,0,0,0,0,0,0,
0,0,0,0,0,0,0,0,0,0,0,0,0,0,0,0,0,0,0,0,0,0,0,0,0,0,0,0,0,0,
0,0,0,0,0,0,0,0,0,0,0,0,0,0,0,0,0,0,0,0,0,0,0,0,0,0,0,0,0,0,
0,0,0,0,0,0,0,0,0,0,0,0,0,0,0,0,0,0,0,0,0,0,0,0,0,0,0,0,0,0,
0,0,0,0,0,0,0,0,0,0,0,0,0,0,0,0,0,0,0,0,0,0,0,0,0,0,0,0,0,0,
0,0,0,0,0,0,0,0,0,0,0,0,0,0,0,0,0,0,0,0,0,0,0,0,0,0,0,0,0,0,
0,0,0,0,0,0,0,0,0,0,0,0,0,0,0,0,0,0,0,0,0,0,0,0,0,0,0,0,0,0,
0,0,0,0,0,0,0,0,0,0,0,0,0,0,0,0,0,0,0,0,0,0,0,0,0,0,0,0,0,0,
0,0,0,0,0,0,0,0,0,0,0,0,0,0,0,0,0,0,0,0,0,0,0,0,0,0,0,0,0,0,
0,0,0,0,0,0,0,0,0,0,0,0,0,0,0,0,0,0,0,0,0,0,0,0,0,0,0,0,0,0,
0,0,0,0,0,0,0,0,0,0,0,0,0,0,0,0,0,0,0,0,0,0,0,0,0,0,0,0,0,0,
0,0,0,0,0,0,0,0,0,0,0,0,0,0,0,0,0,0,0,0,0,0,0,0,0,0,0,0,0,0,
0,0,0,0,0,0,0,0,0,0,0,0,0,0,0,0,0,0,0,0,0,0,0,0,0,0,0,0,0,0,
0,0,0,0,0,0,0,0,0,0,0,0,0,0,0,0,0,0,0,0,0,0,0,0,0,0,0,0,0,0,
0,0,0,0,0,0,0,0,0,0,0,0,0,0,0,0,0,0,0,0,0,0,0,0,0,0,0,0,0,0,
0,0,0,0,0,0,0,0,0,0,0,0,0,0,0,0,0,0,0,0,0,0,0,0,0,0,0,0,0,0,
0,0,0,0,0,0,0,0,0,0,0,0,0,0,0,0,0,0,0,0,0,0,0,0,0,0,0,0,0,0
</data>
 </layer>
 <objectgroup id="2" name="collisionTiles">
  <object id="12" type="collision_tile" x="224" y="300" width="640" height="30"/>
  <object id="48" type="collision_tile" x="0" y="210" width="32" height="210"/>
  <object id="50" type="collision_tile" x="32" y="150" width="32" height="90"/>
  <object id="51" type="collision_tile" x="352" y="420" width="30" height="90"/>
  <object id="52" type="collision_tile" x="352" y="120" width="30" height="90"/>
  <object id="53" type="collision_tile" x="512" y="210" width="30" height="90"/>
  <object id="54" type="collision_tile" x="512" y="330" width="30" height="90"/>
  <object id="55" type="collision_tile" x="672" y="330" width="30" height="60"/>
  <object id="56" type="collision_tile" x="672" y="240" width="30" height="60"/>
  <object id="58" type="collision_tile" x="128" y="240" width="30" height="150"/>
  <object id="60" type="collision_tile" x="64" y="90" width="32" height="90"/>
  <object id="61" type="collision_tile" x="96" y="90" width="64" height="30"/>
  <object id="62" type="collision_tile" x="96" y="510" width="64" height="30"/>
  <object id="63" type="collision_tile" x="224" y="510" width="64" height="30"/>
  <object id="64" type="collision_tile" x="480" y="510" width="64" height="30"/>
  <object id="65" type="collision_tile" x="736" y="510" width="160" height="30"/>
  <object id="67" type="collision_tile" x="32" y="390" width="32" height="90"/>
  <object id="68" type="collision_tile" x="64" y="450" width="32" height="90"/>
 </objectgroup>
 <objectgroup id="3" name="characters">
  <object id="69" name="1" type="character" x="244.896" y="447.89" width="24" height="48"/>
  <object id="70" name="1" type="character" x="132.334" y="178.616" width="24" height="48"/>
  <object id="71" name="1" type="character" x="625.333" y="247.293" width="24" height="48"/>
  <object id="72" name="3" type="character" x="499.017" y="450.87" width="24" height="48"/>
  <object id="73" name="2" type="character" x="118.844" y="35.1305" width="24" height="48"/>
  <object id="74" name="2" type="character" x="802.109" y="243.84" width="24" height="48"/>
  <object id="75" name="2" type="character" x="119.07" y="455.87" width="24" height="48"/>
  <object id="76" name="3" type="character" x="560.156" y="238.972" width="24" height="48"/>
  <object id="77" name="4" type="character" x="354.306" y="363.798" width="24" height="48"/>
  <object id="78" name="4" type="character" x="274.592" y="245.387" width="24" height="48"/>
  <object id="79" name="3" type="character" x="355.532" y="69.4693" width="24" height="48"/>
  <object id="80" name="4" type="character" x="730.8" y="247.293" width="24" height="48"/>
 </objectgroup>
</map>
