<?xml version="1.0" encoding="UTF-8"?>
<map version="1.10" tiledversion="1.11.2" orientation="orthogonal" renderorder="right-down" width="30" height="18" tilewidth="32" tileheight="30" infinite="0" nextlayerid="4" nextobjectid="115">
 <editorsettings>
  <export target="../levels/smily.tmj" format="json"/>
 </editorsettings>
 <layer id="1" name="Tile Layer 1" width="30" height="18">
  <data encoding="csv">
0,0,0,0,0,0,0,0,0,0,0,0,0,0,0,0,0,0,0,0,0,0,0,0,0,0,0,0,0,0,
0,0,0,0,0,0,0,0,0,0,0,0,0,0,0,0,0,0,0,0,0,0,0,0,0,0,0,0,0,0,
0,0,0,0,0,0,0,0,0,0,0,0,0,0,0,0,0,0,0,0,0,0,0,0,0,0,0,0,0,0,
0,0,0,0,0,0,0,0,0,0,0,0,0,0,0,0,0,0,0,0,0,0,0,0,0,0,0,0,0,0,
0,0,0,0,0,0,0,0,0,0,0,0,0,0,0,0,0,0,0,0,0,0,0,0,0,0,0,0,0,0,
0,0,0,0,0,0,0,0,0,0,0,0,0,0,0,0,0,0,0,0,0,0,0,0,0,0,0,0,0,0,
0,0,0,0,0,0,0,0,0,0,0,0,0,0,0,0,0,0,0,0,0,0,0,0,0,0,0,0,0,0,
0,0,0,0,0,0,0,0,0,0,0,0,0,0,0,0,0,0,0,0,0,0,0,0,0,0,0,0,0,0,
0,0,0,0,0,0,0,0,0,0,0,0,0,0,0,0,0,0,0,0,0,0,0,0,0,0,0,0,0,0,
0,0,0,0,0,0,0,0,0,0,0,0,0,0,0,0,0,0,0,0,0,0,0,0,0,0,0,0,0,0,
0,0,0,0,0,0,0,0,0,0,0,0,0,0,0,0,0,0,0,0,0,0,0,0,0,0,0,0,0,0,
0,0,0,0,0,0,0,0,0,0,0,0,0,0,0,0,0,0,0,0,0,0,0,0,0,0,0,0,0,0,
0,0,0,0,0,0,0,0,0,0,0,0,0,0,0,0,0,0,0,0,0,0,0,0,0,0,0,0,0,0,
0,0,0,0,0,0,0,0,0,0,0,0,0,0,0,0,0,0,0,0,0,0,0,0,0,0,0,0,0,0,
0,0,0,0,0,0,0,0,0,0,0,0,0,0,0,0,0,0,0,0,0,0,0,0,0,0,0,0,0,0,
0,0,0,0,0,0,0,0,0,0,0,0,0,0,0,0,0,0,0,0,0,0,0,0,0,0,0,0,0,0,
0,0,0,0,0,0,0,0,0,0,0,0,0,0,0,0,0,0,0,0,0,0,0,0,0,0,0,0,0,0,
0,0,0,0,0,0,0,0,0,0,0,0,0,0,0,0,0,0,0,0,0,0,0,0,0,0,0,0,0,0
</data>
 </layer>
 <objectgroup id="3" name="characters">
  <object id="99" name="1" type="character" x="184.119" y="456.085" width="24" height="48"/>
  <object id="100" name="1" type="character" x="795.221" y="65.9253" width="24" height="48"/>
  <object id="101" name="1" type="character" x="548.777" y="309.725" width="24" height="48"/>
  <object id="102" name="2" type="character" x="865.845" y="66.4402" width="24" height="48"/>
  <object id="103" name="2" type="character" x="88.7743" y="456.928" width="24" height="48"/>
  <object id="104" name="2" type="character" x="412.842" y="306.515" width="24" height="48"/>
  <object id="105" name="3" type="character" x="870.936" y="456.503" width="24" height="48"/>
  <object id="106" name="4" type="character" x="789.971" y="457.329" width="24" height="48"/>
  <object id="107" name="4" type="character" x="61.2573" y="65.2537" width="24" height="48"/>
  <object id="108" name="3" type="character" x="133.197" y="64.3364" width="24" height="48"/>
  <object id="109" name="4" type="character" x="327.465" y="154.594" width="24" height="48"/>
  <object id="110" name="3" type="character" x="610.509" y="156.933" width="24" height="48"/>
  <object id="111" name="3" type="character" x="127.287" y="331.368" width="24" height="48"/>
  <object id="112" name="4" type="character" x="67.2873" y="161.368" width="24" height="48"/>
  <object id="113" name="2" type="character" x="866.287" y="159.368" width="24" height="48"/>
  <object id="114" name="1" type="character" x="808.951" y="337.155" width="24" height="48"/>
 </objectgroup>
 <objectgroup id="2" name="collisionTiles">
  <object id="48" type="collision_tile" x="0" y="0" width="960" height="30"/>
  <object id="50" type="collision_tile" x="32" y="120" width="224" height="30"/>
  <object id="52" type="collision_tile" x="320" y="210" width="32" height="60"/>
  <object id="61" type="collision_tile" x="352" y="240" width="32" height="30"/>
  <object id="67" type="collision_tile" x="544" y="360" width="97" height="30"/>
  <object id="69" type="collision_tile" x="288" y="240" width="32" height="30"/>
  <object id="70" type="collision_tile" x="32" y="212" width="64" height="28"/>
  <object id="71" type="collision_tile" x="64" y="240" width="32" height="60"/>
  <object id="76" type="collision_tile" x="608" y="210" width="32" height="60"/>
  <object id="78" type="collision_tile" x="640" y="240" width="32" height="30"/>
  <object id="79" type="collision_tile" x="576" y="240" width="32" height="30"/>
  <object id="80" type="collision_tile" x="0" y="510" width="960" height="30"/>
  <object id="81" type="collision_tile" x="0" y="30" width="32" height="480"/>
  <object id="82" type="collision_tile" x="928" y="30" width="32" height="480"/>
  <object id="83" type="collision_tile" x="704" y="120" width="224" height="30"/>
  <object id="84" type="collision_tile" x="384" y="120" width="192" height="30"/>
  <object id="85" type="collision_tile" x="416" y="390" width="160" height="28"/>
  <object id="86" type="collision_tile" x="352" y="360" width="97" height="30"/>
  <object id="87" type="collision_tile" x="32" y="300" width="64" height="30"/>
  <object id="88" type="collision_tile" x="768" y="390" width="160" height="30"/>
  <object id="89" type="collision_tile" x="480" y="270" width="32" height="30"/>
  <object id="90" type="collision_tile" x="32" y="390" width="160" height="30"/>
  <object id="91" type="collision_tile" x="864" y="210" width="64" height="30"/>
  <object id="92" type="collision_tile" x="864" y="240" width="32" height="60"/>
  <object id="93" type="collision_tile" x="864" y="300" width="64" height="28"/>
 </objectgroup>
</map>
