<?xml version="1.0" encoding="UTF-8"?>
<map version="1.10" tiledversion="1.11.2" orientation="orthogonal" renderorder="right-down" width="60" height="36" tilewidth="16" tileheight="15" infinite="0" nextlayerid="4" nextobjectid="162">
 <editorsettings>
  <export target="../levels/tree of life.tmj" format="json"/>
 </editorsettings>
 <layer id="1" name="Tile Layer 1" width="60" height="36">
  <data encoding="csv">
0,0,0,0,0,0,0,0,0,0,0,0,0,0,0,0,0,0,0,0,0,0,0,0,0,0,0,0,0,0,0,0,0,0,0,0,0,0,0,0,0,0,0,0,0,0,0,0,0,0,0,0,0,0,0,0,0,0,0,0,
0,0,0,0,0,0,0,0,0,0,0,0,0,0,0,0,0,0,0,0,0,0,0,0,0,0,0,0,0,0,0,0,0,0,0,0,0,0,0,0,0,0,0,0,0,0,0,0,0,0,0,0,0,0,0,0,0,0,0,0,
0,0,0,0,0,0,0,0,0,0,0,0,0,0,0,0,0,0,0,0,0,0,0,0,0,0,0,0,0,0,0,0,0,0,0,0,0,0,0,0,0,0,0,0,0,0,0,0,0,0,0,0,0,0,0,0,0,0,0,0,
0,0,0,0,0,0,0,0,0,0,0,0,0,0,0,0,0,0,0,0,0,0,0,0,0,0,0,0,0,0,0,0,0,0,0,0,0,0,0,0,0,0,0,0,0,0,0,0,0,0,0,0,0,0,0,0,0,0,0,0,
0,0,0,0,0,0,0,0,0,0,0,0,0,0,0,0,0,0,0,0,0,0,0,0,0,0,0,0,0,0,0,0,0,0,0,0,0,0,0,0,0,0,0,0,0,0,0,0,0,0,0,0,0,0,0,0,0,0,0,0,
0,0,0,0,0,0,0,0,0,0,0,0,0,0,0,0,0,0,0,0,0,0,0,0,0,0,0,0,0,0,0,0,0,0,0,0,0,0,0,0,0,0,0,0,0,0,0,0,0,0,0,0,0,0,0,0,0,0,0,0,
0,0,0,0,0,0,0,0,0,0,0,0,0,0,0,0,0,0,0,0,0,0,0,0,0,0,0,0,0,0,0,0,0,0,0,0,0,0,0,0,0,0,0,0,0,0,0,0,0,0,0,0,0,0,0,0,0,0,0,0,
0,0,0,0,0,0,0,0,0,0,0,0,0,0,0,0,0,0,0,0,0,0,0,0,0,0,0,0,0,0,0,0,0,0,0,0,0,0,0,0,0,0,0,0,0,0,0,0,0,0,0,0,0,0,0,0,0,0,0,0,
0,0,0,0,0,0,0,0,0,0,0,0,0,0,0,0,0,0,0,0,0,0,0,0,0,0,0,0,0,0,0,0,0,0,0,0,0,0,0,0,0,0,0,0,0,0,0,0,0,0,0,0,0,0,0,0,0,0,0,0,
0,0,0,0,0,0,0,0,0,0,0,0,0,0,0,0,0,0,0,0,0,0,0,0,0,0,0,0,0,0,0,0,0,0,0,0,0,0,0,0,0,0,0,0,0,0,0,0,0,0,0,0,0,0,0,0,0,0,0,0,
0,0,0,0,0,0,0,0,0,0,0,0,0,0,0,0,0,0,0,0,0,0,0,0,0,0,0,0,0,0,0,0,0,0,0,0,0,0,0,0,0,0,0,0,0,0,0,0,0,0,0,0,0,0,0,0,0,0,0,0,
0,0,0,0,0,0,0,0,0,0,0,0,0,0,0,0,0,0,0,0,0,0,0,0,0,0,0,0,0,0,0,0,0,0,0,0,0,0,0,0,0,0,0,0,0,0,0,0,0,0,0,0,0,0,0,0,0,0,0,0,
0,0,0,0,0,0,0,0,0,0,0,0,0,0,0,0,0,0,0,0,0,0,0,0,0,0,0,0,0,0,0,0,0,0,0,0,0,0,0,0,0,0,0,0,0,0,0,0,0,0,0,0,0,0,0,0,0,0,0,0,
0,0,0,0,0,0,0,0,0,0,0,0,0,0,0,0,0,0,0,0,0,0,0,0,0,0,0,0,0,0,0,0,0,0,0,0,0,0,0,0,0,0,0,0,0,0,0,0,0,0,0,0,0,0,0,0,0,0,0,0,
0,0,0,0,0,0,0,0,0,0,0,0,0,0,0,0,0,0,0,0,0,0,0,0,0,0,0,0,0,0,0,0,0,0,0,0,0,0,0,0,0,0,0,0,0,0,0,0,0,0,0,0,0,0,0,0,0,0,0,0,
0,0,0,0,0,0,0,0,0,0,0,0,0,0,0,0,0,0,0,0,0,0,0,0,0,0,0,0,0,0,0,0,0,0,0,0,0,0,0,0,0,0,0,0,0,0,0,0,0,0,0,0,0,0,0,0,0,0,0,0,
0,0,0,0,0,0,0,0,0,0,0,0,0,0,0,0,0,0,0,0,0,0,0,0,0,0,0,0,0,0,0,0,0,0,0,0,0,0,0,0,0,0,0,0,0,0,0,0,0,0,0,0,0,0,0,0,0,0,0,0,
0,0,0,0,0,0,0,0,0,0,0,0,0,0,0,0,0,0,0,0,0,0,0,0,0,0,0,0,0,0,0,0,0,0,0,0,0,0,0,0,0,0,0,0,0,0,0,0,0,0,0,0,0,0,0,0,0,0,0,0,
0,0,0,0,0,0,0,0,0,0,0,0,0,0,0,0,0,0,0,0,0,0,0,0,0,0,0,0,0,0,0,0,0,0,0,0,0,0,0,0,0,0,0,0,0,0,0,0,0,0,0,0,0,0,0,0,0,0,0,0,
0,0,0,0,0,0,0,0,0,0,0,0,0,0,0,0,0,0,0,0,0,0,0,0,0,0,0,0,0,0,0,0,0,0,0,0,0,0,0,0,0,0,0,0,0,0,0,0,0,0,0,0,0,0,0,0,0,0,0,0,
0,0,0,0,0,0,0,0,0,0,0,0,0,0,0,0,0,0,0,0,0,0,0,0,0,0,0,0,0,0,0,0,0,0,0,0,0,0,0,0,0,0,0,0,0,0,0,0,0,0,0,0,0,0,0,0,0,0,0,0,
0,0,0,0,0,0,0,0,0,0,0,0,0,0,0,0,0,0,0,0,0,0,0,0,0,0,0,0,0,0,0,0,0,0,0,0,0,0,0,0,0,0,0,0,0,0,0,0,0,0,0,0,0,0,0,0,0,0,0,0,
0,0,0,0,0,0,0,0,0,0,0,0,0,0,0,0,0,0,0,0,0,0,0,0,0,0,0,0,0,0,0,0,0,0,0,0,0,0,0,0,0,0,0,0,0,0,0,0,0,0,0,0,0,0,0,0,0,0,0,0,
0,0,0,0,0,0,0,0,0,0,0,0,0,0,0,0,0,0,0,0,0,0,0,0,0,0,0,0,0,0,0,0,0,0,0,0,0,0,0,0,0,0,0,0,0,0,0,0,0,0,0,0,0,0,0,0,0,0,0,0,
0,0,0,0,0,0,0,0,0,0,0,0,0,0,0,0,0,0,0,0,0,0,0,0,0,0,0,0,0,0,0,0,0,0,0,0,0,0,0,0,0,0,0,0,0,0,0,0,0,0,0,0,0,0,0,0,0,0,0,0,
0,0,0,0,0,0,0,0,0,0,0,0,0,0,0,0,0,0,0,0,0,0,0,0,0,0,0,0,0,0,0,0,0,0,0,0,0,0,0,0,0,0,0,0,0,0,0,0,0,0,0,0,0,0,0,0,0,0,0,0,
0,0,0,0,0,0,0,0,0,0,0,0,0,0,0,0,0,0,0,0,0,0,0,0,0,0,0,0,0,0,0,0,0,0,0,0,0,0,0,0,0,0,0,0,0,0,0,0,0,0,0,0,0,0,0,0,0,0,0,0,
0,0,0,0,0,0,0,0,0,0,0,0,0,0,0,0,0,0,0,0,0,0,0,0,0,0,0,0,0,0,0,0,0,0,0,0,0,0,0,0,0,0,0,0,0,0,0,0,0,0,0,0,0,0,0,0,0,0,0,0,
0,0,0,0,0,0,0,0,0,0,0,0,0,0,0,0,0,0,0,0,0,0,0,0,0,0,0,0,0,0,0,0,0,0,0,0,0,0,0,0,0,0,0,0,0,0,0,0,0,0,0,0,0,0,0,0,0,0,0,0,
0,0,0,0,0,0,0,0,0,0,0,0,0,0,0,0,0,0,0,0,0,0,0,0,0,0,0,0,0,0,0,0,0,0,0,0,0,0,0,0,0,0,0,0,0,0,0,0,0,0,0,0,0,0,0,0,0,0,0,0,
0,0,0,0,0,0,0,0,0,0,0,0,0,0,0,0,0,0,0,0,0,0,0,0,0,0,0,0,0,0,0,0,0,0,0,0,0,0,0,0,0,0,0,0,0,0,0,0,0,0,0,0,0,0,0,0,0,0,0,0,
0,0,0,0,0,0,0,0,0,0,0,0,0,0,0,0,0,0,0,0,0,0,0,0,0,0,0,0,0,0,0,0,0,0,0,0,0,0,0,0,0,0,0,0,0,0,0,0,0,0,0,0,0,0,0,0,0,0,0,0,
0,0,0,0,0,0,0,0,0,0,0,0,0,0,0,0,0,0,0,0,0,0,0,0,0,0,0,0,0,0,0,0,0,0,0,0,0,0,0,0,0,0,0,0,0,0,0,0,0,0,0,0,0,0,0,0,0,0,0,0,
0,0,0,0,0,0,0,0,0,0,0,0,0,0,0,0,0,0,0,0,0,0,0,0,0,0,0,0,0,0,0,0,0,0,0,0,0,0,0,0,0,0,0,0,0,0,0,0,0,0,0,0,0,0,0,0,0,0,0,0,
0,0,0,0,0,0,0,0,0,0,0,0,0,0,0,0,0,0,0,0,0,0,0,0,0,0,0,0,0,0,0,0,0,0,0,0,0,0,0,0,0,0,0,0,0,0,0,0,0,0,0,0,0,0,0,0,0,0,0,0,
0,0,0,0,0,0,0,0,0,0,0,0,0,0,0,0,0,0,0,0,0,0,0,0,0,0,0,0,0,0,0,0,0,0,0,0,0,0,0,0,0,0,0,0,0,0,0,0,0,0,0,0,0,0,0,0,0,0,0,0
</data>
 </layer>
 <objectgroup id="3" name="characters">
  <object id="150" name="4" type="character" x="399.16" y="185.093" width="24" height="48"/>
  <object id="151" name="3" type="character" x="869.81" y="186.885" width="24" height="48"/>
  <object id="152" name="1" type="character" x="465.935" y="8.23069" width="24" height="48"/>
  <object id="153" name="1" type="character" x="875.097" y="308.423" width="24" height="48"/>
  <object id="154" name="1" type="character" x="130.097" y="332.656" width="24" height="48"/>
  <object id="155" name="2" type="character" x="51.0966" y="334.656" width="24" height="48"/>
  <object id="156" name="2" type="character" x="527.097" y="201.423" width="24" height="48"/>
  <object id="157" name="2" type="character" x="883.097" y="69.4231" width="24" height="48"/>
  <object id="158" name="3" type="character" x="49.0966" y="97.6561" width="24" height="48"/>
  <object id="159" name="3" type="character" x="609.097" y="331.423" width="24" height="48"/>
  <object id="160" name="4" type="character" x="531.097" y="333.423" width="24" height="48"/>
  <object id="161" name="4" type="character" x="52.0966" y="204.656" width="24" height="48"/>
 </objectgroup>
 <objectgroup id="2" name="collisionTiles">
  <object id="67" type="collision_tile" x="512" y="255" width="97" height="30"/>
  <object id="81" type="collision_tile" x="448" y="90" width="64" height="550">
   <properties>
    <property name="colour" type="color" value=""/>
   </properties>
  </object>
  <object id="88" type="collision_tile" x="512" y="390" width="160" height="30"/>
  <object id="93" type="collision_tile" x="512" y="150" width="64" height="15"/>
  <object id="99" type="collision_tile" x="320" y="240" width="128" height="30"/>
  <object id="100" type="collision_tile" x="288" y="360" width="160" height="30"/>
  <object id="101" type="collision_tile" x="32" y="255" width="97" height="30"/>
  <object id="102" type="collision_tile" x="0" y="90" width="32" height="550">
   <properties>
    <property name="colour" type="color" value=""/>
   </properties>
  </object>
  <object id="103" type="collision_tile" x="32" y="390" width="160" height="30"/>
  <object id="106" type="collision_tile" x="464" y="60" width="32" height="30"/>
  <object id="108" type="collision_tile" x="928" y="90" width="32" height="550">
   <properties>
    <property name="colour" type="color" value=""/>
   </properties>
  </object>
  <object id="109" type="collision_tile" x="800" y="238.316" width="129" height="30"/>
  <object id="110" type="collision_tile" x="768" y="360" width="160" height="30"/>
  <object id="111" type="collision_tile" x="32" y="150" width="64" height="15"/>
  <object id="112" type="collision_tile" x="384" y="120" width="64" height="15"/>
  <object id="113" type="collision_tile" x="864" y="118.316" width="64" height="16.684"/>
  <object id="125" type="collision_tile" x="0" y="60" width="16" height="30"/>
  <object id="126" type="collision_tile" x="944" y="60" width="16" height="30"/>
  <object id="127" type="collision_tile" x="240" y="540" width="208" height="30"/>
  <object id="128" type="collision_tile" x="720" y="540" width="208" height="30"/>
  <object id="130" type="collision_tile" x="96" y="360" width="15" height="30"/>
  <object id="131" type="collision_tile" x="96" y="420" width="15" height="30"/>
  <object id="132" type="collision_tile" x="576" y="360" width="15" height="30"/>
  <object id="133" type="collision_tile" x="576" y="420" width="15" height="30"/>
  <object id="134" type="collision_tile" x="368" y="495" width="15" height="45"/>
  <object id="135" type="collision_tile" x="368" y="570" width="15" height="45"/>
  <object id="136" type="collision_tile" x="288" y="510" width="15" height="30"/>
  <object id="137" type="collision_tile" x="288" y="570" width="15" height="30"/>
  <object id="142" type="collision_tile" x="848" y="495" width="15" height="45"/>
  <object id="143" type="collision_tile" x="848" y="570" width="15" height="45"/>
  <object id="144" type="collision_tile" x="768" y="510" width="15" height="30"/>
  <object id="145" type="collision_tile" x="768" y="570" width="15" height="30"/>
  <object id="146" type="collision_tile" x="800" y="345" width="15" height="15"/>
  <object id="147" type="collision_tile" x="800" y="390" width="15" height="15"/>
  <object id="148" type="collision_tile" x="320" y="345" width="15" height="15"/>
  <object id="149" type="collision_tile" x="320" y="390" width="15" height="15"/>
 </objectgroup>
</map>
